X: 10920
T: Drowsy Maggie
R: reel
M: 4/4
K: Edorian
|:E2BE dEBE|E2BE AFDF|E2BE dEBE|1 BABc dAFD:|2 BABc dAFA||
d2fd c2ec|defg afge|d2fd c2ec|BABc dAFA|
d2fd c2ec|defg afge|afge fdec|BABc dAFD||

